app/img/_src/main/services/services-4.svg

<svg width="80" height="80" viewBox="0 0 80 80" fill="none" xmlns="http://www.w3.org/2000/svg">
<path d="M48.915 66.143C48.2886 58.7524 46.3828 53.0246 43.2508 49.1164C42.8277 48.591 42.2915 48.1679 41.682 47.8787C41.0725 47.5895 40.4056 47.4417 39.7311 47.4463C39.3702 47.4465 39.0106 47.4891 38.6597 47.573C38.6647 47.5792 38.67 47.585 38.6753 47.5913C41.8075 51.4992 43.7133 57.2278 44.3397 64.6177C44.6259 67.9105 44.6291 71.2217 44.3492 74.515C44.3465 74.5402 44.343 74.5653 44.3383 74.5902C44.2892 74.8301 44.3059 75.0787 44.3867 75.3099C44.4675 75.541 44.6093 75.7459 44.7971 75.903C44.985 76.0601 45.2118 76.1634 45.4536 76.202C45.6953 76.2405 45.9431 76.213 46.1704 76.1222C46.3749 76.0673 46.5678 75.9759 46.7398 75.8524C47.6845 74.8562 48.4841 73.7318 49.1148 72.5124C49.1589 70.3872 49.0922 68.2612 48.915 66.143Z" fill="#D4E1F4"/>
<path d="M25.8658 74.5156C25.8639 74.4983 25.8581 74.4417 25.8502 74.3506C22.8455 68.9444 22.1683 61.0109 22.6536 54.6617C22.6955 54.1149 22.7383 53.6056 22.7786 53.1305C23.0355 50.0767 23.1905 48.2335 22.1575 46.5649C21.1634 44.9589 19.1372 43.6961 15.247 41.6367C13.1027 40.5014 11.4658 38.2235 10.6363 35.2225C9.82213 32.167 9.89192 28.9431 10.8375 25.9256C11.7833 22.9669 13.5228 20.5845 15.868 19.0366C18.607 17.2288 22.0684 16.5869 26.1567 17.1292C26.3011 17.1485 26.4472 17.1722 26.5942 17.198C24.8883 16.4289 23.1484 15.8119 21.5811 15.6042C17.4927 15.0619 14.0313 15.7038 11.2923 17.5114C8.94719 19.0595 7.20766 21.4417 6.26109 24.4006C5.31546 27.4181 5.24562 30.6419 6.05969 33.6975C6.8886 36.6983 8.52609 38.9764 10.6706 40.1116C14.5613 42.1709 16.587 43.4338 17.5811 45.0397C18.6141 46.7085 18.4589 48.5516 18.2022 51.6053C18.1622 52.0803 18.1194 52.5897 18.0772 53.1366C17.4902 60.8153 18.6 70.8153 23.4761 75.8535C23.6479 75.9762 23.8402 76.0672 24.0441 76.122C24.2714 76.2127 24.519 76.2403 24.7607 76.2017C25.0024 76.1631 25.2291 76.0599 25.417 75.9029C25.6048 75.746 25.7466 75.5412 25.8275 75.3102C25.9084 75.0792 25.9253 74.8306 25.8764 74.5908C25.872 74.5655 25.8684 74.5406 25.8658 74.5156Z" fill="#D4E1F4"/>
<path d="M10.3575 41.4417C13.8072 43.2679 15.6958 44.4168 16.4452 45.6275C17.1408 46.751 17.015 48.2454 16.7869 50.9581C16.7474 51.429 16.7049 51.9339 16.6635 52.4768C16.3285 56.8575 16.5697 61.3798 17.3429 65.2112C18.3068 69.9873 20.0352 73.6898 22.48 76.216C22.7561 76.5011 23.1747 76.7378 23.7602 76.9393C24.1034 77.0578 24.464 77.1182 24.8271 77.1181C25.2927 77.1246 25.754 77.0279 26.1777 76.8348C26.6015 76.6418 26.9772 76.3572 27.2778 76.0016C27.5784 75.646 27.7965 75.2282 27.9164 74.7783C28.0362 74.3283 28.0549 73.8574 27.971 73.3993C27.8907 72.5668 26.4599 56.5823 33.2671 48.2965C33.5152 48.0026 33.8249 47.7667 34.1742 47.6055C34.5235 47.4443 34.9039 47.3618 35.2886 47.3637C35.6733 47.3657 36.0528 47.452 36.4005 47.6166C36.7482 47.7813 37.0555 48.0203 37.3007 48.3167C43.9743 56.6437 42.5652 72.5667 42.4855 73.4C42.3756 74.0205 42.4508 74.6597 42.7016 75.2378C43.3524 76.7389 45.1079 77.4864 46.6966 76.9392C47.2819 76.7376 47.7007 76.5017 47.9768 76.2159C50.4216 73.6898 52.1499 69.9873 53.1138 65.2112C53.8868 61.3801 54.1282 56.8578 53.7932 52.4768C53.7565 51.9964 53.7193 51.5457 53.6838 51.1217C53.3858 47.5034 53.3452 46.2996 54.4666 45.0618L53.0771 43.8029C51.3563 45.7025 51.5193 47.682 51.8152 51.2754C51.8497 51.696 51.8866 52.1432 51.923 52.6192C52.8025 64.114 49.7657 71.6718 46.6318 74.9093C46.4663 75.026 46.2817 75.1129 46.0863 75.1659C45.8692 75.2529 45.6327 75.2795 45.4018 75.2428C45.1708 75.2062 44.9541 75.1077 44.7746 74.9578C44.5952 74.8079 44.4597 74.6122 44.3825 74.3915C44.3053 74.1708 44.2893 73.9332 44.3363 73.7042C44.341 73.6787 44.3449 73.6529 44.3475 73.6271C44.6227 70.3888 44.6196 67.1328 44.3382 63.895C43.7219 56.6257 41.8466 50.99 38.7641 47.1437C38.3444 46.6296 37.8162 46.2146 37.2174 45.9285C36.6185 45.6423 35.9638 45.4921 35.3002 45.4885C34.6365 45.4849 33.9802 45.628 33.3783 45.9076C32.7764 46.1873 32.2438 46.5965 31.8185 47.1061C28.675 50.9323 26.76 56.569 26.1268 63.8593C25.8377 67.1088 25.832 70.3773 26.1097 73.6278C26.1125 73.6534 26.1163 73.6789 26.121 73.704C26.1679 73.9331 26.152 74.1706 26.0748 74.3914C25.9977 74.6121 25.8622 74.8078 25.6827 74.9578C25.5032 75.1077 25.2865 75.2062 25.0556 75.2429C24.8246 75.2796 24.5881 75.253 24.371 75.166C24.1767 75.1128 23.993 75.0268 23.8277 74.9117C20.6915 71.6718 17.6541 64.114 18.5329 52.6196C18.5741 52.0818 18.6161 51.5818 18.6554 51.1153C18.9083 48.1068 19.0616 46.2909 18.0396 44.6404C17.0521 43.0453 15.1422 41.8531 11.2344 39.7845C9.13677 38.674 7.53442 36.444 6.7227 33.5057C5.92487 30.5106 5.99335 27.3505 6.9202 24.3928C7.89817 21.3329 11.3174 14.3673 21.9313 15.7757C25.3965 16.2351 29.7282 18.7362 32.5933 20.3912C33.1413 20.7076 33.6144 20.9809 34.0349 21.2136L34.9424 19.5729C34.5371 19.3489 34.0708 19.0795 33.531 18.7678C30.5368 17.0387 26.0119 14.4256 22.1779 13.9171C13.8415 12.8125 7.47036 16.514 5.13442 23.822C2.8952 30.8281 5.23817 38.7315 10.3575 41.4417Z" fill="url(#paint0_linear)"/>
<path d="M54.4575 2.8822C42.7403 2.8822 33.2075 12.415 33.2075 24.1322C33.2075 35.8494 42.7403 45.3822 54.4575 45.3822C66.1747 45.3822 75.7075 35.8495 75.7075 24.1322C75.7075 12.4149 66.1749 2.8822 54.4575 2.8822ZM54.4575 43.5072C50.6255 43.5072 46.8795 42.3709 43.6933 40.2419C40.5071 38.113 38.0238 35.087 36.5574 31.5467C35.0909 28.0064 34.7072 24.1107 35.4548 20.3523C36.2024 16.5939 38.0477 13.1417 40.7573 10.432C43.467 7.72237 46.9193 5.87708 50.6776 5.12949C54.436 4.3819 58.3317 4.76559 61.872 6.23204C65.4123 7.69848 68.4383 10.1818 70.5672 13.368C72.6962 16.5542 73.8325 20.3002 73.8325 24.1322C73.8267 29.269 71.7836 34.1937 68.1513 37.826C64.5191 41.4583 59.5943 43.5014 54.4575 43.5072Z" fill="url(#paint1_linear)"/>
<path d="M67.6945 18.6965C66.8801 14.6598 63.948 12.0515 60.2245 12.0515C58.3797 12.0515 56.4 12.725 54.465 14.0056C52.5053 12.6667 50.5547 11.9889 48.6581 11.9889C44.912 11.9889 41.9914 14.6259 41.2176 18.7053C40.1128 24.4639 43.5742 32.0903 53.7978 36.1467C53.8134 36.153 53.8298 36.1589 53.8462 36.1644C54.2399 36.3124 54.6739 36.3124 55.0675 36.1644C55.0861 36.1583 55.1044 36.1514 55.1225 36.144C65.343 32.0034 68.8019 24.4009 67.6958 18.7033L67.6945 18.6965ZM54.4565 34.3906C45.2534 30.7265 42.1009 24.0525 43.0595 19.0564C43.667 15.8533 45.8122 13.8636 48.6581 13.8636C50.2964 13.8636 52.1078 14.5687 53.8964 15.903C54.0566 16.0225 54.2509 16.0877 54.4508 16.0889C54.6508 16.0902 54.8459 16.0276 55.0076 15.9101C56.7959 14.6123 58.6 13.9258 60.2245 13.9258C63.0578 13.9258 65.2155 15.8945 65.8559 19.0634C67.1822 25.9098 61.0937 31.6895 54.4565 34.3906Z" fill="url(#paint2_linear)"/>
<defs>
<linearGradient id="paint0_linear" x1="29.3759" y1="13.7249" x2="29.3759" y2="77.1184" gradientUnits="userSpaceOnUse">
<stop stop-color="#8888D3"/>
<stop offset="1" stop-color="#5E60A3"/>
</linearGradient>
<linearGradient id="paint1_linear" x1="54.4575" y1="2.8822" x2="54.4575" y2="45.3822" gradientUnits="userSpaceOnUse">
<stop stop-color="#8888D3"/>
<stop offset="1" stop-color="#5E60A3"/>
</linearGradient>
<linearGradient id="paint2_linear" x1="54.4569" y1="11.9889" x2="54.4569" y2="36.2754" gradientUnits="userSpaceOnUse">
<stop stop-color="#8888D3"/>
<stop offset="1" stop-color="#5E60A3"/>
</linearGradient>
</defs>
</svg>

<svg width="80" height="80" fill="none" xmlns="http://www.w3.org/2000/svg"><path d="M48.915 66.143c-.626-7.39-2.532-13.118-5.664-17.027a4.48 4.48 0 00-3.52-1.67c-.36 0-.72.043-1.071.127l.015.018c3.133 3.908 5.038 9.637 5.665 17.027.286 3.293.29 6.604.01 9.897a.952.952 0 01-.012.075 1.357 1.357 0 001.832 1.532c.205-.055.398-.146.57-.27a14.605 14.605 0 002.375-3.34 61.179 61.179 0 00-.2-6.369zm-23.049 8.373a8.353 8.353 0 01-.016-.165c-3.005-5.407-3.682-13.34-3.196-19.69.041-.546.084-1.055.125-1.53.256-3.054.412-4.898-.622-6.566-.994-1.606-3.02-2.869-6.91-4.928-2.144-1.136-3.781-3.413-4.61-6.415a16.706 16.706 0 01.2-9.296c.946-2.96 2.686-5.341 5.031-6.89 2.739-1.807 6.2-2.45 10.289-1.907.144.02.29.043.437.069-1.706-.77-3.446-1.386-5.013-1.594-4.088-.542-7.55.1-10.289 1.907-2.345 1.549-4.084 3.93-5.03 6.89a16.706 16.706 0 00-.202 9.296c.829 3.001 2.466 5.28 4.61 6.415 3.891 2.059 5.917 3.322 6.911 4.928 1.033 1.669.878 3.512.621 6.565-.04.475-.083.985-.125 1.532-.587 7.678.523 17.678 5.4 22.716.17.123.363.214.567.269a1.356 1.356 0 001.832-1.531 1.105 1.105 0 01-.01-.075z" fill="#D4E1F4"/><path d="M10.357 41.442c3.45 1.826 5.339 2.975 6.088 4.185.696 1.124.57 2.618.342 5.331-.04.471-.082.976-.123 1.519-.336 4.38-.094 8.903.679 12.734.964 4.776 2.692 8.479 5.137 11.005.276.285.695.522 1.28.723.343.119.704.18 1.067.18a3.15 3.15 0 003.144-3.72c-.08-.832-1.511-16.817 5.296-25.102a2.629 2.629 0 014.034.02c6.673 8.327 5.264 24.25 5.184 25.083a3.21 3.21 0 00.217 1.838c.65 1.5 2.406 2.248 3.995 1.701.585-.201 1.004-.437 1.28-.723 2.445-2.526 4.173-6.229 5.137-11.005.773-3.83 1.014-8.353.68-12.734-.037-.48-.075-.931-.11-1.355-.298-3.619-.339-4.822.783-6.06l-1.39-1.26c-1.72 1.9-1.558 3.88-1.262 7.473.035.421.072.868.108 1.344.88 11.495-2.157 19.053-5.291 22.29a1.73 1.73 0 01-.546.257 1.294 1.294 0 01-1.75-1.462.954.954 0 00.011-.077 56.826 56.826 0 00-.009-9.732c-.616-7.27-2.491-12.905-5.574-16.751a4.503 4.503 0 00-6.946-.038c-3.143 3.826-5.058 9.463-5.691 16.753a56.225 56.225 0 00-.017 9.769c.003.025.006.05.011.076a1.295 1.295 0 01-1.75 1.462 1.768 1.768 0 01-.543-.254c-3.136-3.24-6.174-10.798-5.295-22.292.041-.538.083-1.038.122-1.505.253-3.008.407-4.824-.615-6.475-.988-1.595-2.898-2.787-6.806-4.855-2.097-1.111-3.7-3.341-4.511-6.28a16.378 16.378 0 01.197-9.112c.978-3.06 4.397-10.026 15.011-8.617 3.465.46 7.797 2.96 10.662 4.615.548.317 1.021.59 1.442.823l.907-1.641c-.405-.224-.871-.494-1.411-.805-2.994-1.73-7.52-4.342-11.353-4.85-8.337-1.105-14.708 2.596-17.044 9.904-2.239 7.006.104 14.91 5.223 17.62z" fill="url(#paint0_linear)"/><path d="M54.458 2.882c-11.718 0-21.25 9.533-21.25 21.25s9.532 21.25 21.25 21.25c11.717 0 21.25-9.532 21.25-21.25 0-11.717-9.533-21.25-21.25-21.25zm0 40.625a19.375 19.375 0 1119.374-19.375 19.397 19.397 0 01-19.374 19.375z" fill="url(#paint1_linear)"/><path d="M67.695 18.697c-.815-4.037-3.747-6.645-7.47-6.645-1.845 0-3.825.673-5.76 1.954-1.96-1.34-3.91-2.017-5.807-2.017-3.746 0-6.667 2.637-7.44 6.716-1.105 5.759 2.356 13.385 12.58 17.442a1.735 1.735 0 001.325-.003c10.22-4.14 13.679-11.743 12.573-17.44l-.001-.008zM54.457 34.39C45.252 30.727 42.1 24.053 43.058 19.056c.608-3.203 2.753-5.192 5.6-5.192 1.637 0 3.449.705 5.237 2.039a.937.937 0 001.112.007c1.788-1.298 3.592-1.984 5.216-1.984 2.834 0 4.992 1.969 5.632 5.137 1.326 6.847-4.762 12.627-11.4 15.328z" fill="url(#paint2_linear)"/><defs><linearGradient id="paint0_linear" x1="29.376" y1="13.725" x2="29.376" y2="77.118" gradientUnits="userSpaceOnUse"><stop stop-color="#8888D3"/><stop offset="1" stop-color="#5E60A3"/></linearGradient><linearGradient id="paint1_linear" x1="54.458" y1="2.882" x2="54.458" y2="45.382" gradientUnits="userSpaceOnUse"><stop stop-color="#8888D3"/><stop offset="1" stop-color="#5E60A3"/></linearGradient><linearGradient id="paint2_linear" x1="54.457" y1="11.989" x2="54.457" y2="36.275" gradientUnits="userSpaceOnUse"><stop stop-color="#8888D3"/><stop offset="1" stop-color="#5E60A3"/></linearGradient></defs></svg>
